X:2
T:No.102 The Cameronian
M:4/4
L:1/8
C:reel
K:D
A2FA DFAF|GGFG EcdB|
A2FA DFAF|GBAG FDDd:|
Addc dfed|cdef gfed|
ceAe ceAe|cdef gfeg|
faeg faeg|fdec defg|
afge fdec|dBAG FDDd:|
